X:26
T:Lord McDonalds Reel. LIT.026
M:2/4
Q:1/4=140
L:1/8
B:Wm. Litten MS, 1802
Z:Village Music Project 2017 Anne Wride
K:G
B | d3e | dB gB | dB gB | aA AB |
dc de | dB gB | A/B/c BA | BG G :|
|: B | DG BG | AG BG | DG BG | AG AB |
DG BG | AG BG | de dc |BG Gg |
dg bg | ag bg | dg bg | ag ea |
ba gf | gf ed | ef ga | bg g :|

